public/avatar/hat/136.svg

<svg xmlns:xlink="http://www.w3.org/1999/xlink" height="92.9" width="100.7" xmlns="http://www.w3.org/2000/svg"><use height="36.35" transform="translate(18.55 38.45)" width="37.9" xlink:href="#a"/><defs><g id="a"><path d="M-9.15 7.05q1.75 1.15.3 4.2l-.25.65q-1.5 4.1 1.5 7.85.2.2.1.5 0 .3-.3.4-1.3.55-2.6 0 .3 1.8 1.75 2.9l.2.45v.1q0 .3-.35.45-2.75 1.3-5.15-.75-1.25-1.15-1.4-3.25l-.55 2.4q-.1.4-.5.5-.45 0-.6-.3-1.55-2.9-.6-6.95.95-4 4.05-7.65h.05q2.6-2.75 4.35-1.5" fill="#3a0c07" fill-rule="evenodd" transform="translate(20.1 11.3)"/><path d="M-12.85 9.95Q-11.2 8.1-10.4 8.9q.75.8-.2 3.05-1.1 4.05 1.5 7.5-1.55.7-2.8-.75.95 4.2 1.95 5-1.65.3-3.2-1.1-1.95-1.75-1.25-5.25-1.55 1.15-2.15 4.3-1.05-5.85 3.7-11.7" fill="#ff7900" fill-rule="evenodd" transform="translate(20.1 11.3)"/><path d="M-13.15 22.6q-1.95-1.75-1.25-5.25-1.55 1.15-2.15 4.3-.25-1.55-.1-2.95l2.45-4.2q.4 2.6 2.6 3.4-.95-4.5.7-9.2 1.75 0 .3 3.25-1.1 4.05 1.5 7.5-1.55.7-2.8-.75.95 4.2 1.95 5-1.65.3-3.2-1.1" fill="#c74200" fill-rule="evenodd" transform="translate(20.1 11.3)"/><path d="M13.3 7.2v.05q3.15 3.6 4.1 7.6 1 4-.6 6.95-.25.35-.6.3-.4-.1-.5-.5l-.55-2.4q-.15 2.2-1.45 3.25-2.3 2.05-5.15.75-.25-.05-.35-.45v-.05l.25-.5q1.45-1.15 1.75-2.9l-2.6.05-.35-.4q-.1-.3.1-.5 3.1-3.9 1.5-7.85l-.2-.65q-1.4-3 .25-4.25 1.8-1.15 4.4 1.5" fill="#3a0c07" fill-rule="evenodd" transform="translate(20.1 11.3)"/><path d="M12.65 8.65q4.75 5.9 3.65 11.65-.5-3.05-2.1-4.3.7 3.5-1.25 5.3-1.55 1.4-3.2 1.1 1-.85 1.95-5.05-1.2 1.5-2.8.8 2.65-3.6 1.45-7.55-.95-2.25-.15-3 .8-.8 2.45 1.05" fill="#ff7900" fill-rule="evenodd" transform="translate(20.1 11.3)"/><path d="M11.05 7.45q.7.15 1.6 1.2 4.75 5.9 3.65 11.65-.5-3.05-2.1-4.3.7 3.5-1.25 5.3-1.55 1.4-3.2 1.1l.7-.8q1.65-1.3 3-7.1-1.3 1.9-2.2 1.9 2.1-5.9-.2-8.95" fill="#c74200" fill-rule="evenodd" transform="translate(20.1 11.3)"/><path d="M8.9 3.7h2.45l.45.05q2.9 0 3.15 2.55.6 3.1-2.6 3.8-6.5 2.25-16.2 1.8l-8.9-.95-2.4-.75q-.6-.5-.9-1.85l-.15-1.1q0-.65.35-1.2.8-1.25 3.8-1.75 5-.9 20.95-.6" fill="#00141c" fill-rule="evenodd" transform="translate(20.1 11.3)"/><path d="m8.2-9.3.25.3 3.6 14.25-.15.5q-2 2-10.55 2.4-8.75.4-13.65-1.55l-.3-.5 1.4-7.1 1.95-7.85q.35-.65 3.05-1.5Q2.5-12.7 8.2-9.3" fill="#00141c" fill-rule="evenodd" transform="translate(20.1 11.3)"/><path d="M-2.3-9.8q5.95-.7 9.6 1.5l3.3 13.15Q8.9 6.55 1.15 6.9q-8 .35-12.35-1.35L-9.85-1l1.75-7.05q.6-1.15 5.8-1.75" fill="#33a02c" fill-rule="evenodd" transform="translate(20.1 11.3)"/><path d="M4.95-4.3q-1.7-.1-3.1-.95Q5.8-5.5 7.45-7.7L10.6 4.85Q8.75 6.7.45 6.95 2.4 5.6 3 1.35q.6-4.4 1.95-5.65" fill="#296300" fill-rule="evenodd" transform="translate(20.1 11.3)"/><path d="M10.2 4.55q2.7.15 2.9 1.95.45 2.35-2.3 2.8Q4.85 11.35-4 10.9l-7.65-.85-1.95-.55q-.4-.25-.6-1.3-.6-2.45 3.25-3.15 2.85-.5 21.15-.5" fill="#296300" fill-rule="evenodd" transform="translate(20.1 11.3)"/><path d="M10.2 4.55q2.45.15 2.8 1.35-10.5 6.55-27.3 1.3.1-1.6 3.35-2.15 2.85-.5 21.15-.5" fill="#79e26d" fill-rule="evenodd" transform="translate(20.1 11.3)"/><path d="M-12.05 2.85Q-11.5.5-10.7-.1-7.85 1.1.6.85 8.8.6 10.1-.45q.55.3 1.1 2.55t.35 3.3q-.75 1.4-8.7 2.05-8.9.75-14.75-1.4-.7-.8-.15-3.2" fill="#00141c" fill-rule="evenodd" transform="translate(20.1 11.3)"/><path d="M-15.05 6.55Q-11.35 9.05-.6 9q11.15-.1 14.45-3.3" fill="none" stroke="#00141c" stroke-linecap="round" stroke-linejoin="round" transform="translate(20.1 11.3)"/><path d="M-4.9-1.3v.05l-.05.05.05-.1m6-1.1q3.5.25 3.75 1.25 1.45 4.1-.1 8.05l.05-.1q-.05.85-2 1.15l-4.35.15q-2.95-.25-3.4-1.2-.6-.9-.6-4.05 0-3 .65-4.1.35-.9 3.15-1.1L1.1-2.4" fill="#3f0d03" fill-rule="evenodd" transform="translate(20.1 11.3)"/><path d="M3.7-.4q1.15 3.15-.05 6.55-.1.8-3.6.8-3.5.05-3.95-.85-.4-.75-.4-3.25 0-2.55.45-3.3.3-.8 3.85-.75 3.55 0 3.7.8" fill="#fc0" fill-rule="evenodd" transform="translate(20.1 11.3)"/><path d="M-1.1 5.2q-1.5 0-1.85-.95-.75-2.7.2-3.85.55-.65 2.8-.65 1.75.05 2.1 1.3L2.2 3.2q0 2.1-3.3 2" fill="#a87300" fill-rule="evenodd" transform="translate(20.1 11.3)"/><path d="M3.65 6.15q-.05.7-3.15.8-3.05.1-4.1-.6.2-.35.5-.35l4.75.4Q3.2 6.25 3.2 4.05q0-2.75.45-2.9l.4.25q.25 2.9-.4 4.75" fill="#a87300" fill-rule="evenodd" transform="translate(20.1 11.3)"/><path d="M1.05 5.25q-2.75.45-3.2-.5L-2.4 3.1q0-1.2.3-1.65h-.05l.05-.05v.05Q-1.8.7.35.9q1.5.05 1.65.6L2.2 3l-.25 1.65q-.05.5-.9.6" fill="#3f0d03" fill-rule="evenodd" transform="translate(20.1 11.3)"/><path d="M1.15 4.2q-2.3.4-2.5 0-.65-1.1 0-2.2 2.45-.35 2.5 0 .4 1.2 0 2.2" fill="#00141c" fill-rule="evenodd" transform="translate(20.1 11.3)"/><path d="M-8.65-8.45Q-5.05-6.85.8-7q5.6-.15 7.05-1.6" fill="none" stroke="#00141c" stroke-linecap="round" stroke-linejoin="round" transform="translate(20.1 11.3)"/><path d="m-20.1-1.85.2-1.5q.7-2.8 2.55-3.25 1.05-.25 2.35.8l-.05-.4q0-1.45.65-2.15.8-1 2.9-1h.2q2.45 0 3.3 2l.2.9-.3 1.05q.7-.25 1.3 0 1.8.7 2 3.75.15 2.7-1.3 3.55l-3.95-.15q-.1 2.65-1.75 3.55l-3.65.1q-2.2-1-2.25-2.8v-.05q0-.85.65-1.5Q-18.7 1-19.45.1q-.65-.8-.65-1.95" fill="#00141c" fill-rule="evenodd" transform="translate(20.1 11.3)"/><path d="m-18.6-1.1.1-1.95q.4-1.55 1.3-2.25 1.4-1 3.1 1.15-.85-3.8 2.65-3.8 1.2 0 2.1.95 1.25 1.25-.6 3.25 1.65-1.45 2.7-.5.9.8 1.05 2.6.25 5-4.6 2.3.15 2.8-1.6 3.55l-2.45-.1q-1.15-.55-1.6-1.5-.6-1.35 1.35-2.4-3 .5-3.5-1.3" fill="#24cf28" fill-rule="evenodd" transform="translate(20.1 11.3)"/><path d="M2.65-9.75q-2.5 1-1.8 2.2l-5.55-.4-1.95-.4q-.3-.45.9-.85l4.7-.75 3.35.2h.35m-8.25 3.5 3.75.25-.65.65.2 1.55q-.05.9.35 1.4l-2.3.45q.4-1.5-.25-3.1l1.25-.4-2.35-.8" fill="#79e26d" fill-rule="evenodd" transform="translate(20.1 11.3)"/><path d="M-9.5 2.3q.55.7 2.4.35v2.3l.3 1.7q-1.9-.3-2.7-.9.5-.05-.05-3.25l.05-.2M9.25.55l.7 4.35q-.15.55-1.55 1.15.65-.85.55-1.65l-.25.1q.35-.75-.05-2L8.25.9 9.4.3l-.15.25" fill="#50a393" fill-rule="evenodd" transform="translate(20.1 11.3)"/><path d="M2.65 3.15q0 2.15-.3 2.5l-3.5.1L1.7 5.1l.7-2.8.15.85h.1M2.3-1.1l.95.3-1.3.25-3.55.25q-1.65.4-2.05 1.85l-.3 3.2q-.25-.5-.15-2.2 0-2.4.55-2.9 1.1-1.1 5.85-.75" fill="#fff" fill-rule="evenodd" transform="translate(20.1 11.3)"/><path d="M-13.85-.6q-3.55.75-3.45-.75.05-.6.95-.65l.9.05q-1.85-1.3-1.35-2.25.95-1.75 3.6 1.6-.55-3.95.25-4.1 1.25-.25 1.1 2.15l.55-1.25q.7-1.1 1.5-.65.65.4.15 1.5L-11-2.3q1.2-1.05 2.3-1.2 1.3-.25 1.4 1.15.05 1.3-1.35 1.15l.7.25q.7.4.55 1.1-.2.8-1.5.55t-2.4-1.25l.2 1.95q-.05 1.7-1.7 1.9-.6.1-.55-1l.15-1.15q-1 2.25-2.1 1.4-.85-.65.05-1.7Q-14-.2-13.85-.6" fill="#245e28" fill-rule="evenodd" transform="translate(20.1 11.3)"/><path d="M-9.3-6.35q-.95-.6-2.4-.65-1.6-.1-2.1.65.55-1.35 2.15-1.3 1.6.05 2.35 1.3m-6.9.9Q-18.25-3.1-17.7-.1q-1.35-.7-.6-3.05.75-2.3 2.1-2.3" fill="#e3ffe4" fill-rule="evenodd" transform="translate(20.1 11.3)"/><path d="m-11.6-4.05.25 2.2 2.15.55-2.6.4q-.55.5-1.1 1.75.45-1.2.05-1.7l-2.05-.85q1.55-.25 2.1-.6t1.1-1.75h.1" fill="#24cf28" fill-rule="evenodd" transform="translate(20.1 11.3)"/><path d="m-13.7 11.05.1-.1 1.35.5q-2.95 2.2-3.5 4.55.1-2.5 2.05-4.95" fill="#ffe8d7" fill-rule="evenodd" transform="translate(20.1 11.3)"/></g></defs></svg>

<?xml version="1.0" encoding="UTF-8" standalone="no"?>
<svg xmlns:xlink="http://www.w3.org/1999/xlink" height="92.9px" width="100.7px" xmlns="http://www.w3.org/2000/svg">
  <g transform="matrix(1.0, 0.0, 0.0, 1.0, 38.65, 49.75)">
    <use height="36.35" transform="matrix(1.0, 0.0, 0.0, 1.0, -20.1, -11.3)" width="37.9" xlink:href="#shape0"/>
  </g>
  <defs>
    <g id="shape0" transform="matrix(1.0, 0.0, 0.0, 1.0, 20.1, 11.3)">
      <path d="M-9.15 7.05 Q-7.4 8.2 -8.85 11.25 L-9.1 11.9 Q-10.6 16.0 -7.6 19.75 -7.4 19.95 -7.5 20.25 -7.5 20.55 -7.8 20.65 -9.1 21.2 -10.4 20.65 -10.1 22.45 -8.65 23.55 L-8.45 24.0 -8.45 24.1 Q-8.45 24.4 -8.8 24.55 -11.55 25.85 -13.95 23.8 -15.2 22.65 -15.35 20.55 L-15.9 22.95 Q-16.0 23.35 -16.4 23.45 -16.85 23.45 -17.0 23.15 -18.55 20.25 -17.6 16.2 -16.65 12.2 -13.55 8.55 L-13.5 8.55 Q-10.9 5.8 -9.15 7.05" fill="#3a0c07" fill-rule="evenodd" stroke="none"/>
      <path d="M-12.85 9.95 Q-11.2 8.1 -10.4 8.9 -9.65 9.7 -10.6 11.95 -11.7 16.0 -9.1 19.45 -10.65 20.15 -11.9 18.7 -10.95 22.9 -9.95 23.7 -11.6 24.0 -13.15 22.6 -15.1 20.85 -14.4 17.35 -15.95 18.5 -16.55 21.65 -17.6 15.8 -12.85 9.95" fill="#ff7900" fill-rule="evenodd" stroke="none"/>
      <path d="M-13.15 22.6 Q-15.1 20.85 -14.4 17.35 -15.95 18.5 -16.55 21.65 -16.8 20.1 -16.65 18.7 L-14.2 14.5 Q-13.8 17.1 -11.6 17.9 -12.55 13.4 -10.9 8.7 -9.15 8.7 -10.6 11.95 -11.7 16.0 -9.1 19.45 -10.65 20.15 -11.9 18.7 -10.95 22.9 -9.95 23.7 -11.6 24.0 -13.15 22.6" fill="#c74200" fill-rule="evenodd" stroke="none"/>
      <path d="M13.3 7.2 L13.3 7.25 Q16.45 10.85 17.4 14.85 18.4 18.85 16.8 21.8 16.55 22.15 16.2 22.1 15.8 22.0 15.7 21.6 L15.15 19.2 Q15.0 21.4 13.7 22.45 11.4 24.5 8.55 23.2 8.3 23.15 8.2 22.75 L8.2 22.7 8.45 22.2 Q9.9 21.05 10.2 19.3 L7.6 19.35 7.25 18.95 Q7.15 18.65 7.35 18.45 10.45 14.55 8.85 10.6 L8.65 9.95 Q7.25 6.95 8.9 5.7 10.7 4.55 13.3 7.2" fill="#3a0c07" fill-rule="evenodd" stroke="none"/>
      <path d="M12.65 8.65 Q17.4 14.55 16.3 20.3 15.8 17.25 14.2 16.0 14.9 19.5 12.95 21.3 11.4 22.7 9.75 22.4 10.75 21.55 11.7 17.35 10.5 18.85 8.9 18.15 11.55 14.55 10.35 10.6 9.4 8.35 10.2 7.6 11.0 6.8 12.65 8.65" fill="#ff7900" fill-rule="evenodd" stroke="none"/>
      <path d="M11.05 7.45 Q11.75 7.6 12.65 8.65 17.4 14.55 16.3 20.3 15.8 17.25 14.2 16.0 14.9 19.5 12.95 21.3 11.4 22.7 9.75 22.4 L10.45 21.6 Q12.1 20.3 13.45 14.5 12.15 16.4 11.25 16.4 13.35 10.5 11.05 7.45" fill="#c74200" fill-rule="evenodd" stroke="none"/>
      <path d="M8.9 3.7 L11.35 3.7 11.8 3.75 Q14.7 3.75 14.95 6.3 15.55 9.4 12.35 10.1 5.85 12.35 -3.85 11.9 L-12.75 10.95 -15.15 10.2 Q-15.75 9.7 -16.05 8.35 L-16.2 7.25 Q-16.2 6.6 -15.85 6.05 -15.05 4.8 -12.05 4.3 -7.05 3.4 8.9 3.7" fill="#00141c" fill-rule="evenodd" stroke="none"/>
      <path d="M8.2 -9.3 L8.45 -9.0 12.05 5.25 11.9 5.75 Q9.9 7.75 1.35 8.15 -7.4 8.55 -12.3 6.6 L-12.6 6.1 -11.2 -1.0 -9.25 -8.85 Q-8.9 -9.5 -6.2 -10.35 2.5 -12.7 8.2 -9.3" fill="#00141c" fill-rule="evenodd" stroke="none"/>
      <path d="M-2.3 -9.8 Q3.65 -10.5 7.3 -8.3 L10.6 4.85 Q8.9 6.55 1.15 6.9 -6.85 7.25 -11.2 5.55 L-9.85 -1.0 -8.1 -8.05 Q-7.5 -9.2 -2.3 -9.8" fill="#33a02c" fill-rule="evenodd" stroke="none"/>
      <path d="M4.95 -4.3 Q3.25 -4.4 1.85 -5.25 5.8 -5.5 7.45 -7.7 L10.6 4.85 Q8.75 6.7 0.45 6.95 2.4 5.6 3.0 1.35 3.6 -3.05 4.95 -4.3" fill="#296300" fill-rule="evenodd" stroke="none"/>
      <path d="M10.2 4.55 Q12.9 4.7 13.1 6.5 13.55 8.85 10.8 9.3 4.85 11.35 -4.0 10.9 L-11.65 10.05 -13.6 9.5 Q-14.0 9.25 -14.2 8.2 -14.8 5.75 -10.95 5.05 -8.1 4.55 10.2 4.55" fill="#296300" fill-rule="evenodd" stroke="none"/>
      <path d="M10.2 4.55 Q12.65 4.7 13.0 5.9 2.5 12.45 -14.3 7.2 -14.2 5.6 -10.95 5.05 -8.1 4.55 10.2 4.55" fill="#79e26d" fill-rule="evenodd" stroke="none"/>
      <path d="M-12.05 2.85 Q-11.5 0.5 -10.7 -0.1 -7.85 1.1 0.6 0.85 8.8 0.6 10.1 -0.45 10.65 -0.15 11.2 2.1 11.75 4.35 11.55 5.4 10.8 6.8 2.85 7.45 -6.05 8.2 -11.9 6.05 -12.6 5.25 -12.05 2.85" fill="#00141c" fill-rule="evenodd" stroke="none"/>
      <path d="M-15.05 6.55 Q-11.35 9.05 -0.6 9.0 10.55 8.9 13.85 5.7" fill="none" stroke="#00141c" stroke-linecap="round" stroke-linejoin="round" stroke-width="1.0"/>
      <path d="M-4.9 -1.3 L-4.9 -1.25 -4.95 -1.2 -4.9 -1.3 M1.1 -2.4 Q4.6 -2.15 4.85 -1.15 6.3 2.95 4.75 6.9 L4.8 6.8 Q4.75 7.65 2.8 7.95 L-1.55 8.1 Q-4.5 7.85 -4.95 6.9 -5.55 6.0 -5.55 2.85 -5.55 -0.15 -4.9 -1.25 -4.55 -2.15 -1.75 -2.35 L1.1 -2.4" fill="#3f0d03" fill-rule="evenodd" stroke="none"/>
      <path d="M3.7 -0.4 Q4.85 2.75 3.65 6.15 3.55 6.95 0.05 6.95 -3.45 7.0 -3.9 6.1 -4.3 5.35 -4.3 2.85 -4.3 0.3 -3.85 -0.45 -3.55 -1.25 0.0 -1.2 3.55 -1.2 3.7 -0.4" fill="#ffcc00" fill-rule="evenodd" stroke="none"/>
      <path d="M-1.1 5.2 Q-2.6 5.2 -2.95 4.25 -3.7 1.55 -2.75 0.4 -2.2 -0.25 0.05 -0.25 1.8 -0.2 2.15 1.05 L2.2 3.2 Q2.2 5.3 -1.1 5.2" fill="#a87300" fill-rule="evenodd" stroke="none"/>
      <path d="M3.65 6.15 Q3.6 6.85 0.5 6.95 -2.55 7.05 -3.6 6.35 -3.4 6.0 -3.1 6.0 L1.65 6.4 Q3.2 6.25 3.2 4.05 3.2 1.3 3.65 1.15 L4.05 1.4 Q4.3 4.3 3.65 6.15" fill="#a87300" fill-rule="evenodd" stroke="none"/>
      <path d="M1.05 5.25 Q-1.7 5.7 -2.15 4.75 L-2.4 3.1 Q-2.4 1.9 -2.1 1.45 L-2.15 1.45 -2.1 1.4 -2.1 1.45 Q-1.8 0.7 0.35 0.9 1.85 0.95 2.0 1.5 L2.2 3.0 1.95 4.65 Q1.9 5.15 1.05 5.25" fill="#3f0d03" fill-rule="evenodd" stroke="none"/>
      <path d="M1.15 4.2 Q-1.15 4.6 -1.35 4.2 -2.0 3.1 -1.35 2.0 1.1 1.65 1.15 2.0 1.55 3.2 1.15 4.2" fill="#00141c" fill-rule="evenodd" stroke="none"/>
      <path d="M-8.65 -8.45 Q-5.05 -6.85 0.8 -7.0 6.4 -7.15 7.85 -8.6" fill="none" stroke="#00141c" stroke-linecap="round" stroke-linejoin="round" stroke-width="1.0"/>
      <path d="M-20.1 -1.85 L-19.9 -3.35 Q-19.2 -6.15 -17.35 -6.6 -16.3 -6.85 -15.0 -5.8 L-15.05 -6.2 Q-15.05 -7.65 -14.4 -8.35 -13.6 -9.35 -11.5 -9.35 L-11.3 -9.35 Q-8.85 -9.35 -8.0 -7.35 L-7.8 -6.45 -8.1 -5.4 Q-7.4 -5.65 -6.8 -5.4 -5.0 -4.7 -4.8 -1.65 -4.65 1.05 -6.1 1.9 L-10.05 1.75 Q-10.15 4.4 -11.8 5.3 L-15.45 5.4 Q-17.65 4.4 -17.7 2.6 L-17.7 2.55 Q-17.7 1.7 -17.05 1.05 -18.7 1.0 -19.45 0.1 -20.1 -0.7 -20.1 -1.85" fill="#00141c" fill-rule="evenodd" stroke="none"/>
      <path d="M-18.6 -1.1 L-18.5 -3.05 Q-18.1 -4.6 -17.2 -5.3 -15.8 -6.3 -14.1 -4.15 -14.95 -7.95 -11.45 -7.95 -10.25 -7.95 -9.35 -7.0 -8.1 -5.75 -9.95 -3.75 -8.3 -5.2 -7.25 -4.25 -6.35 -3.45 -6.2 -1.65 -5.95 3.35 -10.8 0.65 -10.65 3.45 -12.4 4.2 L-14.85 4.1 Q-16.0 3.55 -16.45 2.6 -17.05 1.25 -15.1 0.2 -18.1 0.7 -18.6 -1.1" fill="#24cf28" fill-rule="evenodd" stroke="none"/>
      <path d="M2.65 -9.75 Q0.15 -8.75 0.85 -7.55 L-4.7 -7.95 -6.65 -8.35 Q-6.95 -8.8 -5.75 -9.2 L-1.05 -9.95 2.3 -9.75 2.65 -9.75" fill="#79e26d" fill-rule="evenodd" stroke="none"/>
      <path d="M-5.6 -6.25 L-1.85 -6.0 -2.5 -5.35 -2.3 -3.8 Q-2.35 -2.9 -1.95 -2.4 L-4.25 -1.95 Q-3.85 -3.45 -4.5 -5.05 L-3.25 -5.45 -5.6 -6.25" fill="#79e26d" fill-rule="evenodd" stroke="none"/>
      <path d="M-9.5 2.3 Q-8.95 3.0 -7.1 2.65 L-7.1 4.95 -6.8 6.65 Q-8.7 6.35 -9.5 5.75 -9.0 5.7 -9.55 2.5 L-9.5 2.3" fill="#50a393" fill-rule="evenodd" stroke="none"/>
      <path d="M9.25 0.55 L9.95 4.9 Q9.8 5.45 8.4 6.05 9.05 5.2 8.95 4.4 L8.7 4.5 Q9.05 3.75 8.65 2.5 L8.25 0.9 9.4 0.3 9.25 0.55" fill="#50a393" fill-rule="evenodd" stroke="none"/>
      <path d="M2.65 3.15 Q2.65 5.3 2.35 5.65 L-1.15 5.75 1.7 5.1 2.4 2.3 2.55 3.15 2.65 3.15" fill="#ffffff" fill-rule="evenodd" stroke="none"/>
      <path d="M2.3 -1.1 L3.25 -0.8 1.95 -0.55 -1.6 -0.3 Q-3.25 0.1 -3.65 1.55 L-3.95 4.75 Q-4.2 4.25 -4.1 2.55 -4.1 0.15 -3.55 -0.35 -2.45 -1.45 2.3 -1.1" fill="#ffffff" fill-rule="evenodd" stroke="none"/>
      <path d="M-13.85 -0.6 Q-17.4 0.15 -17.3 -1.35 -17.25 -1.95 -16.35 -2.0 L-15.45 -1.95 Q-17.3 -3.25 -16.8 -4.2 -15.85 -5.95 -13.2 -2.6 -13.75 -6.55 -12.95 -6.7 -11.7 -6.95 -11.85 -4.55 L-11.3 -5.8 Q-10.6 -6.9 -9.8 -6.45 -9.15 -6.05 -9.65 -4.95 L-11.0 -2.3 Q-9.8 -3.35 -8.7 -3.5 -7.4 -3.75 -7.3 -2.35 -7.25 -1.05 -8.65 -1.2 L-7.95 -0.95 Q-7.25 -0.55 -7.4 0.15 -7.6 0.95 -8.9 0.7 -10.2 0.45 -11.3 -0.55 L-11.1 1.4 Q-11.15 3.1 -12.8 3.3 -13.4 3.4 -13.35 2.3 L-13.2 1.15 Q-14.2 3.4 -15.3 2.55 -16.15 1.9 -15.25 0.85 -14.0 -0.2 -13.85 -0.6" fill="#245e28" fill-rule="evenodd" stroke="none"/>
      <path d="M-9.3 -6.35 Q-10.25 -6.95 -11.7 -7.0 -13.3 -7.1 -13.8 -6.35 -13.25 -7.7 -11.65 -7.65 -10.05 -7.6 -9.3 -6.35" fill="#e3ffe4" fill-rule="evenodd" stroke="none"/>
      <path d="M-16.2 -5.45 Q-18.25 -3.1 -17.7 -0.1 -19.05 -0.8 -18.3 -3.15 -17.55 -5.45 -16.2 -5.45" fill="#e3ffe4" fill-rule="evenodd" stroke="none"/>
      <path d="M-11.6 -4.05 L-11.35 -1.85 -9.2 -1.3 -11.8 -0.9 Q-12.35 -0.4 -12.9 0.85 -12.45 -0.35 -12.85 -0.85 L-14.9 -1.7 Q-13.35 -1.95 -12.8 -2.3 -12.25 -2.65 -11.7 -4.05 L-11.6 -4.05" fill="#24cf28" fill-rule="evenodd" stroke="none"/>
      <path d="M-13.7 11.05 L-13.6 10.95 -12.25 11.45 Q-15.2 13.65 -15.75 16.0 -15.65 13.5 -13.7 11.05" fill="#ffe8d7" fill-rule="evenodd" stroke="none"/>
    </g>
  </defs>
</svg>
